X:144
T:Middlesex Farmer THO3.144,The
O:England;London
M:C|
L:1/8
Z:vmp. Peter Dunk 2011.from a transcription by Fynn Titford-Mock 2006-9
B:Thompson's Compleat Collection of 200 Favourite Country Dances Vol. III.1765-72
Q:1/2=70
K:D
D|DA-AB defd |dBAB efeE|FAAB defg|(f/g/a) ef dDD:|
|:a|fdad fgab|fdad fe-ea|fdad fgab|fdec dDD:|

